X:1084
M:3/4
L:1/8
Q:1/4=104
K:D
fba   |{a}^g2 ga/b/ ed      |   ca {c'}b2 ^g2 |{b}a2 z
afd'  |    b3  gfg          |{b}a3       fef  |{a}g3 ede|{g}f2z
d'c'd'|{c'}b3  gab|d2{ed}caac'|d'2{c'b}c'abg|{b}a2b2ge|afgedc|{e}d2|]

